X:1
T:Messe basse
T:Messe basse
T:II - Introit
T:Louis Vierne (1870 - 1937)
C:Louis Vierne (1870 - 1937)
%%score { ( 1 2 ) 3 } 4
L:1/8
Q:1/4=66
M:6/4
K:Gmin
V:1 treble 
V:2 treble 
V:3 treble 
V:4 treble 
V:1
"^Larghetto""^-10,-40R" (d4 e2 d4 e2 | d4 =f2 e3 d =B2) | (c4 =d2 B4 c2 | G4 A2 D6) | %4
 (E4 G2 B2 _A2 G2) | (_G4 _B2 _d2 _c2 B2) | (=A4 =c2 e4 _g2 | %7
!>(! b4 =c'2!>)! !fermata!a2)"^0,-30G.R." z2 z2 | z12 | z12 | z12 | z6 z4 (G,2 | B,4 A,2 ^G,4 F2- | %13
 F2 =E2 G,2 ^F,4) (_E2- | E2 D2 =F,2 =E,4) B,2- | B,2 A,2 G,2 F,2 z2 (D2 | E4 D2 ^C4 _B2- | %17
 B2 A2 =C2 B,4) (_A2- | A2 G2 _B,2 =A,4) (E2- | E2 D2 C2 B,2) C2 (G2 | B4 A2 ^G4 f2- | %21
 f2 =e2 =G2 ^F4) (_e2- | e2 d2 =F2 =E4) (B2- | B2 A2 G2 F2)"^-25,-45R."!p! (d2 _d2 | c12) | %25
 (c6 =B2) (g2 _g2 | f12) | f6- (f2 e2)!pp! (g2 | _a4 g2 ^f4 e'2- | e'2 d'2 =f2 =e4) (_d'2- | %30
 d'2 c'2 _e2 =d4) (_a2- | a2 g2 f2 d2 =e2) g2 | (c4 f2 B2 c2 _e2) | (_A4 _d2 =G2 A2 c2) | %34
 (F2 =G2 _A2 [A=c]2 [GB]2 [FA-]2) |!mf! (A2 G2 _G2- G2 F2 =A2) | (c2 =E2 F2- F2 _E2 G2) | %37
 (B2 =D2 E2- E2 =D2 E2) | (F2 G2 _A2 B4 c2) | (_d4 e2 d4 _f2 | _d6) d4- d z | %41
!>(! (^c4 ^d2 c4 =e2!>)! |[Q:1/4=120]"^Poco rit."!>(! ^c12)!>)! | %43
[Q:1/4=120]"^a Tempo"!pp! (=d4 _e2 d4 e2 | d4 =f2 e3 d =B2) | (c4 d2 _B4 c2 | G4 A2 D6) | %47
 (E4 G2 B2 _A2 G2 | _G4 B2 _d2 _c2 _B2) |!mf! (=A4 c2 e4 ^f2 |!f! b4 =c'2 a6) | (_a4 _b2 g4) x2 | %52
 (f4 g2 e4 d2) | (_d4 e2 c4 _c2) | (B4 c2 _A4 B2 |!>(! G12)!>)! |!p! !fermata!G12 |] %57
V:2
 z2!p! B4 z2 A2 _A2 | z2 G2 ^F2 z2 F2 =F2 | z2 E2 =D2 z2 _D2 C2 | z2 B,2 A,2 z2 C4 | %4
 z2 B,2 _D2 z2 =D2 E2 | z2 _D2 _F2 z2 =F2 _G2 | z2!f! ^D2 ^F2 z2 A2 c2 | z2 =d2 ^c2 d2 x2 x2 | %8
 x12 | x12 | x12 | x12 | x12 | x12 | x12 | x12 | x12 | x12 | x12 | x6 x4 D2 | D2 =E2 F2- F2 E2 D2 | %21
 ^C2 D2 =E2- E2 D2 =C2 | _B,2 C2 D2- D2 ^C2 D2 | =E2 _B,2 ^C2 D2 B4- | B2 A2 _A2 G6 | %25
 ^F6 G2 z2 z2 | z2 d2 _d2 c6 | =B6 c4 z2 | x12 | x12 | x12 | x12 | x12 | x12 | x12 | E12- | %36
 E2 D4 _D6- | D2 C4 _C2 B,2 =A,2 | x12 | z2 E2 _F2 z2 =F2 _G2 | z2 =G2 _A2 =A2 =c2 _B x | %41
 z2 =B4 z2 B4 | z2 =B2 _B2 A2 _A2 G2 | z2 c2 =B2 z2 _B2 A2 | z2 _A2 G2 z2 ^F2 =F2 | %45
 z2 =E2 _E2 z2 D2 _D2 | z2 C2 ^C2 z2 =B,2 _B,2 | z2 =B,2 C2 z2 ^C2 D2 | z2 E2 =E2 z2 F2 ^F2 | %49
 z2!<(! =G2 ^F2 z2 B2!<)! A2 | z2 =e2 ^c2 z2 _e2 =c2 | z2 d2 =B2 z2 ^c2 _B2 | z2 B2 A2 z2 G2 ^F2 | %53
 z2 =F2 E2 z2 __E2 _D2 | z2 _D2 C2 z2 _C2 B,2 | z2 B,2 =B,2 [_B,D]4 [=A,C]2 | =B,12 |] %57
V:3
 z2 G2 [C_G]2 z2 F2 [B,_F]2 | z2 E2 [=A,D]2 z2 C2 [_A,_D]2 | %2
 z2 [_G,_B,]2 [F,=A,]2 z2 [_F,_A,]2 [E,=G,]2 | z2 [_D,F,]2 [C,=E,]2 z2 [B,,_E,G,]2 [A,,=D,^F,]2 | %4
 z2 [G,,_D,]2 [B,,E,]2 z2 [=B,,=F,]2 [C,E,]2 | z2 [_B,,_F,]2 [_D,_G,]2 z2 [=D,__A,]2 [E,G,]2 | %6
 z2 [^F,=B,]2 [=A,=D]2 z2 [=C=F]2 [_E_A]2 | z2 [=E^G]2 [=A,=G]2 !fermata![=D^F]2 z2!f! z2 | z12 | %9
 z12 | z12 | z12 | z12 | z12 | z12 | z6 z2 G,2 _A,2- | A,2 G,2 B,2- B,2 =A,2 G,2 | %17
 ^F,4 A,2- A,2 G,2 =F,2 | E,4 G,2- G,2 ^F,2 G,2 | A,2 =E,2 ^F,2 G,2 A,2 B,2 | %20
 B,2 C2 D2- D2 C2 =B,2 | A,2 =B,2 ^C2 =C2 B,2 A,2 | G,2 A,2 =B,2 _B,2 A,2 G,2- | %23
 G,2 F,2 =E,2 D,2 z2 z2 | z2 F4- F2 =E2 _E2 | D6- D2 z2 z2 | z2 B4- B2 A2 _A2 | G6- G4 z2 | %28
 z2 c2 e2- e2 d2 c2 | =B4 d2- d2 c2 _B2 | A4 _A2- A2 G2 F2 | E2 D2 =B2 c2 B2 _B2- | %32
 B2 =A2 _A2- A2 G2 _G2- | G2 F2 =E2- E2 _E2 =D2- | D4 x2 x6 | x12 | x12 | x12 | %38
 _A,2 G,2 F,2- F,2 _F,2 E,2 | z2 [G,B,]2 [_A,_C]2 z2 [=A,=C]2 [B,_D]2 | %40
 z2 [=B,=D]2 [C_E]2 [^C=E]2 [=D^F]2 [_EG] z | z2 [=FA]2 [=E^G]2 z2 [_E=G]2 [D^F]2 | %42
 z2 [^C^E]2 [=C=E]2 [=B,^D]2 [_B,=D]2 [=A,^C]2 | z2 _E2 D2 z2 _D2 C2 | z2 _C2 _B,2 z2 =A,2 _A,2 | %45
 z2 G,2 ^F,2 z2 =F,2 =E,2 | z2 _E,2 =E,2 z2 F,2 ^F,2 | z2 G,2 _A,2 z2 =A,2 _B,2 | %48
 z2 _C2 =C2 z2 _D2 =D2 | z2 _E2 D2 z2 ^C2 =C2 | z2 G,2 =E2 z2 ^F,2 _E2 | z2 =F,2 D2 z2 =E,2 ^C2 | %52
 z2 D2 =C2 z2 B,2 A,2 | z2 _A,2 G,2 z2 _G,2 F,2 | z2 =F,2 =E,2 z2 _E,2 =D,2 | %55
 z2 G,2 =F,2 =E,2 [=D,F,]2 [_E,^F,]2 | !fermata![D,G,]12 |] %57
V:4
 x12 | x12 | x12 | x12 | x12 | x12 | x12 | x6 x4 (D,2 | E,4 D,2 ^C,4 B,2- | %9
 B,2 A,2 =C,2 =B,,4) (_A,2- | A,2 G,2 _B,,2 A,,4) (E,2- | E,2 D,2 C,2 B,,2 A,,2 B,,2) | %12
 G,,2 G,2 F,2- F,2 =E,2 D,2 | ^C,4 =E,2- E,2 D,2 =C,2 | B,,4 D,2- D,2 ^C,2 D,2 | %15
 =E,2 =B,,2 ^C,2 D,2 =C,2 B,,2 | C,2 _B,,2 G,,2 =A,,2 =B,,2 ^C,2 | D,4 ^F,,2 G,,2 =A,,2 =B,,2 | %18
 C,4 ^C,2 D,6 | C,2 B,,2 A,,2 G,,4 x2 | G,4 D,2 =E,4 ^G,2 | A,6 D,6 | G,6- G,2 =F,2 =E,2 | %23
 A,,2 G,,2 A,,2 _B,,2 z2 z2 | z6 z2 B,4- | B,2 =A,2 _A,2 G,2 z2 z2 | z6 z2 E4- | E2 D2 _D2 C6- | %28
 C12- | C12- | C12- | C12- | C12- | C12- | C2 _C2 B,2 z2 z2"^-10,-25R." B,,2 | %35
 (C,4 B,,2 =A,,4 G,2- | G,2 F,2 _A,,2 G,,4) (F,2- | F,2 E,2 _G,,2 F,,4) (_C,2- | %38
 C,2 B,,2 _A,,2 G,,6) | z12 | z12 | z12 | z12 |"^-10,-30R." D,12- | D,12- | D,12- | D,12- | D,12- | %48
 D,12- | D,12- | D,12- | D,12- | D,4 E,2 C,6 | B,,4 __B,,2 _A,,6 | =G,,4 _G,,2 F,,4 _F,,2 | %55
 E,,2 E,2 _D,2 C,6 | !fermata!G,,12 |] %57

